svg/Outline/musical-note.svg

<svg viewBox="0 0 24 24" xmlns="http://www.w3.org/2000/svg" width="24" height="24"><path fill-rule="evenodd" d="M14.67 2.64a2.54 2.54 0 0 1 1.3 4.92l-3.37.9-.01.01a.5.5 0 0 0-.4.51v10.9a2.3 2.3 0 0 1-1.58 2.03l-.95.32a2.67 2.67 0 0 1-3.51-2.38v-.17a2.4 2.4 0 0 1 1.63-2.29l2.25-.76a.5.5 0 0 0 .36-.5V5.01q0-.55.34-1l.08-.1q.33-.34.79-.47zM8.36 19.1a.6.6 0 0 0-.42.6v.1c.08.56.63.91 1.14.74l.95-.32a.5.5 0 0 0 .36-.5v-1.3zm7.7-13.98a.74.74 0 0 0-.93-.72l-2.94.76V6.7l3.32-.88a.74.74 0 0 0 .55-.72" clip-rule="evenodd"/></svg>

<svg viewBox="0 0 24 24" xmlns="http://www.w3.org/2000/svg" width="24" height="24"><path fill-rule="evenodd" d="M14.67 2.64A2.54 2.54 0 0 1 15.97 7.56L12.59 8.47A.5 .5 0 0 0 12.19 8.98L12.19 19.88A2.3 2.3 0 0 1 10.61 21.91L9.66 22.23A2.67 2.67 0 0 1 6.15 19.85L6.15 19.68A2.4 2.4 0 0 1 7.78 17.39L10.03 16.63A.5 .5 0 0 0 10.39 16.13L10.39 5.01Q10.39 4.46 10.73 4.01L10.81 3.91Q11.14 3.57 11.6 3.44ZM8.36 19.1a.6.6 0 0 0-.42.6v.1c.08.56.63.91 1.14.74l.95-.32a.5.5 0 0 0 .36-.5v-1.3zm7.7-13.98a.74.74 0 0 0-.93-.72l-2.94.76V6.7l3.32-.88a.74.74 0 0 0 .55-.72" clip-rule="evenodd"/></svg>
